assets/sonr-icons/banknote.svg

<svg xmlns="http://www.w3.org/2000/svg" width="24" height="24" fill="none" viewBox="0 0 24 24"><path stroke="#000" stroke-linejoin="round" stroke-width="2" d="M19.5 5.5H4.5C3.39543 5.5 2.5 6.39543 2.5 7.5V16.5C2.5 17.6046 3.39543 18.5 4.5 18.5H19.5C20.6046 18.5 21.5 17.6046 21.5 16.5V7.5C21.5 6.39543 20.6046 5.5 19.5 5.5Z"/><path stroke="#000" stroke-linejoin="round" stroke-width="2" d="M12 14C13.1046 14 14 13.1046 14 12 14 10.8954 13.1046 10 12 10 10.8954 10 10 10.8954 10 12 10 13.1046 10.8954 14 12 14ZM21 9C19.3431 9 18 7.65685 18 6M6 6C6 7.65685 4.65685 9 3 9M18 18C18 16.3431 19.3431 15 21 15M6 18C6 16.3431 4.65685 15 3 15"/></svg>

<svg xmlns="http://www.w3.org/2000/svg" width="24" height="24" fill="none"><path stroke="#000" stroke-linejoin="round" stroke-width="2" d="M19.5 5.5h-15a2 2 0 0 0-2 2v9a2 2 0 0 0 2 2h15a2 2 0 0 0 2-2v-9a2 2 0 0 0-2-2Z"/><path stroke="#000" stroke-linejoin="round" stroke-width="2" d="M12 14a2 2 0 1 0 0-4 2 2 0 0 0 0 4Zm9-5a3 3 0 0 1-3-3M6 6a3 3 0 0 1-3 3m15 9a3 3 0 0 1 3-3M6 18a3 3 0 0 0-3-3"/></svg>
